X: 1
T: The Dusty Miller's Jig
R: slipjig
B: Cole p.66
D:
Z: John Chambers <jc@trillian.mit.edu>
N: A "Dusty Miller" is a moth that's common in the British Isles.
M: 9/8
L: 1/8
K: G
|: "G"B2d "D7"c2A "G"BAG | "Am"E2A A2B cBA | "G"B2d "D7"c2A "G"BAG | "D7"D2F G2A "G"BAG :|
|: "G"B2d "D7"e2f "G"g3  | "Am"a2A A2B cBA | "G"B2d "D7"e2f "G"g2a | "C"g2e "D7"d2c "G"BAG :|
